X:1
T: Miss Murray of Lintrose
C:
R:Reel
Q:232
K:G
M:4/4
L:1/8
d2|B2 BA G2 D2|E4 D2 c2|B2 G2 A2 GF|GA Bc d2 dc|B2 BA G2 D2|E4 D2 c2|B2 G2 FG AF|G4 G2 z2|
G2 d2 d2 cd|e2 c2 c2 Bc|D2 c2 c2 Bc|d2 B2 B2 AG|D2 B2 E2 c2|B4 A2 c2|B2 G2 FG AF|G4 G2 d2|
B2 BA G2 D2|E4 D2 c2|B2 G2 A2 GF|GA Bc d2 dc|B2 BA G2 D2|E4 D2 c2|B2 G2 FG AF|G4 G2 z2|
G2 d2 d2 cd|e2 c2 c2 Bc|D2 c2 c2 Bc|d2 B2 B2 AG|D2 B2 E2 c2|B4 A2 c2|B2 G2 FG AF|G4 G4|
G2 d2 d2 cd|e2 c2 c2 Bc|D2 c2 c2 Bc|d2 B2 B2 AG|D2 B2 E2 c2|B4 A2 c2|B2 G2 FG AF|G4 G4||
